!!!OTL: 1090. Unmoegliche Dinge. / [Ein Berckrey.]
!!!ARE: Europa, Mitteleuropa, Deutschland
!!!SCT: E1090
!!!TXL: @@DE
!!!YEM: Copyright 1995, estate of Helmut Schaffrath.
**kern	**text
*ICvox	*
*M4/4	*
*met(c)	*
*k[]	*
*C:	*
=1	=1
!LO:TX:a:t=Rhaw, Bicinia 1545, I, Nr. 96.	!
2r	.
4r	.
{4c	Jch
=2	=2
4c	weiß
4c	ein
4c	fein
4c	brauns
=3	=3
4g	Mäg-
4g	-de-
4g}	-lein,
{4g	wollt
=4	=4
4f	Gott
4g	ſie
4a	wä-
4g	-re
=5	=5
(4g	mei-
4f)	.
2e	-ne,
=6	=6
4r}	.
{4e	ſie
4f	müß-
4f	-te
=7	=7
4g	mir
4e	von
4f	Ha-
4e	-ber-
=8	=8
4g}	-ſtroh
{4e	wol
4f	ſpinnen
4e	.
=9	=9
2g	brau-
4f	-ne
[4e	Sei-
=10	=10
4e]	.
8dL	.
8cJ	.
2d	.
=11	=11
1c;}	-den.
==	==
!!!AGN: Wunsch - Lied, Luegen - Maerchen
!!!ONB: ESAC (Essen Associative Code) Database: ERK3
!!!AMT: simple quadruple
!!!AIN: vox
!!!EED: Helmut Schaffrath
!!!EEV: 1.0
!!!GTL: Raethsel-, Wett- und Wunschlieder, nebst Luegenmaerchen.
!!!URL-scan: https://rosdok.uni-rostock.de/mcrviewer/recordIdentifier/rosdok_ppn745177999/iview2/phys_0038.iview2?x=182.0046689637527&y=1713.975972752436&scale=0.701185927818147&rotation=0&layout=singlePageLayout
!!!ENC: Anna Maria Matuszewska
!!!EEV: 2024/12/23
*-	*-
